X:1
T:The Green Cottage
M:6/8
L:1/8
C:Jono Lonie
O:New Zealand
Q:1/4=140
R:Jig
S:Farewell to the Spit
K:G
"Em"E3 B,EG|"D"FED "Em"EFA|E3 B,EG|"D"FED "Bm"B,3|
"Em"E3 B,EG|"D"FED "Em"EFA|"Bm"BdB AFE|1 FGA FED:|2 FGA "F#m"FGA|
|:"Bm"BdB AFA|FBF "A"AFE|"Bm"BdB AFf|edB "A"dBA|
"Bm"BdB AFA|BFB "A"AFA|"Em"gfe dBA|1 FGA FED:|2 FGA BGF||